Numix-Circle/48x48/apps/pharlap.svg

<?xml version="1.0" encoding="UTF-8" standalone="no"?>
<svg
   xmlns:dc="http://purl.org/dc/elements/1.1/"
   xmlns:cc="http://creativecommons.org/ns#"
   xmlns:rdf="http://www.w3.org/1999/02/22-rdf-syntax-ns#"
   xmlns:svg="http://www.w3.org/2000/svg"
   xmlns="http://www.w3.org/2000/svg"
   xmlns:sodipodi="http://sodipodi.sourceforge.net/DTD/sodipodi-0.dtd"
   xmlns:inkscape="http://www.inkscape.org/namespaces/inkscape"
   viewBox="0 0 48 48"
   id="svg2"
   version="1.1"
   inkscape:version="0.91 r13725"
   width="100%"
   height="100%"
   sodipodi:docname="pharlap.svg">
  <metadata
     id="metadata77">
    <rdf:RDF>
      <cc:Work
         rdf:about="">
        <dc:format>image/svg+xml</dc:format>
        <dc:type
           rdf:resource="http://purl.org/dc/dcmitype/StillImage" />
        <dc:title />
      </cc:Work>
    </rdf:RDF>
  </metadata>
  <sodipodi:namedview
     pagecolor="#ffffff"
     bordercolor="#666666"
     borderopacity="1"
     objecttolerance="10"
     gridtolerance="10"
     guidetolerance="10"
     inkscape:pageopacity="0"
     inkscape:pageshadow="2"
     inkscape:window-width="1580"
     inkscape:window-height="838"
     id="namedview75"
     showgrid="true"
     inkscape:zoom="16"
     inkscape:cx="26.702035"
     inkscape:cy="21.125714"
     inkscape:window-x="10"
     inkscape:window-y="52"
     inkscape:window-maximized="0"
     inkscape:current-layer="svg2">
    <inkscape:grid
       type="xygrid"
       id="grid3237" />
  </sodipodi:namedview>
  <defs
     id="defs4">
    <linearGradient
       id="linearGradient3764"
       y1="47"
       x2="0"
       y2="1"
       gradientUnits="userSpaceOnUse">
      <stop
         stop-color="#23bd88"
         stop-opacity="1"
         id="stop7" />
      <stop
         offset="1"
         stop-color="#26cd93"
         stop-opacity="1"
         id="stop9" />
    </linearGradient>
    <clipPath
       id="clipPath-496265931">
      <g
         transform="translate(0,-1004.3622)"
         id="g12">
        <path
           d="m -24 13 c 0 1.105 -0.672 2 -1.5 2 -0.828 0 -1.5 -0.895 -1.5 -2 0 -1.105 0.672 -2 1.5 -2 0.828 0 1.5 0.895 1.5 2 z"
           transform="matrix(15.333333,0,0,11.5,414.99999,878.8622)"
           fill="#1890d0"
           id="path14" />
      </g>
    </clipPath>
    <clipPath
       id="clipPath-505734700">
      <g
         transform="translate(0,-1004.3622)"
         id="g17">
        <path
           d="m -24 13 c 0 1.105 -0.672 2 -1.5 2 -0.828 0 -1.5 -0.895 -1.5 -2 0 -1.105 0.672 -2 1.5 -2 0.828 0 1.5 0.895 1.5 2 z"
           transform="matrix(15.333333,0,0,11.5,414.99999,878.8622)"
           fill="#1890d0"
           id="path19" />
      </g>
    </clipPath>
  </defs>
  <g
     id="g21">
    <path
       d="m 36.31 5 c 5.859 4.062 9.688 10.831 9.688 18.5 c 0 12.426 -10.07 22.5 -22.5 22.5 c -7.669 0 -14.438 -3.828 -18.5 -9.688 c 1.037 1.822 2.306 3.499 3.781 4.969 c 4.085 3.712 9.514 5.969 15.469 5.969 c 12.703 0 23 -10.298 23 -23 c 0 -5.954 -2.256 -11.384 -5.969 -15.469 c -1.469 -1.475 -3.147 -2.744 -4.969 -3.781 z m 4.969 3.781 c 3.854 4.113 6.219 9.637 6.219 15.719 c 0 12.703 -10.297 23 -23 23 c -6.081 0 -11.606 -2.364 -15.719 -6.219 c 4.16 4.144 9.883 6.719 16.219 6.719 c 12.703 0 23 -10.298 23 -23 c 0 -6.335 -2.575 -12.06 -6.719 -16.219 z"
       opacity="0.05"
       id="path23" />
    <path
       d="m 41.28 8.781 c 3.712 4.085 5.969 9.514 5.969 15.469 c 0 12.703 -10.297 23 -23 23 c -5.954 0 -11.384 -2.256 -15.469 -5.969 c 4.113 3.854 9.637 6.219 15.719 6.219 c 12.703 0 23 -10.298 23 -23 c 0 -6.081 -2.364 -11.606 -6.219 -15.719 z"
       opacity="0.1"
       id="path25" />
    <path
       d="m 31.25 2.375 c 8.615 3.154 14.75 11.417 14.75 21.13 c 0 12.426 -10.07 22.5 -22.5 22.5 c -9.708 0 -17.971 -6.135 -21.12 -14.75 a 23 23 0 0 0 44.875 -7 a 23 23 0 0 0 -16 -21.875 z"
       opacity="0.2"
       id="path27" />
  </g>
  <path
     inkscape:connector-curvature="0"
     style="fill:url(#linearGradient3764);fill-opacity:1"
     id="path31"
     d="M 24,1 C 36.703,1 47,11.297 47,24 47,36.703 36.703,47 24,47 11.297,47 1,36.703 1,24 1,11.297 11.297,1 24,1 Z" />
  <path
     style="opacity:0.1;fill:#000000;fill-opacity:1"
     d="M 20.285156,13 C 20.128013,13 20,13.135781 20,13.300781 L 20,17 18.185547,17 C 17.533696,17 17,17.533696 17,18.185547 L 17,20 15.626953,20 c -0.64701,0 -0.931817,1 -1.519531,1 l -1.804688,0 C 12.136453,21 12,21.03422 12,21.199219 l 0,1.5 C 12,22.864218 12.136453,23 12.302734,23 l 1.814454,0 c 0.587163,0 0.949027,-1 1.511718,-1 L 17,22 l 0,2 -1.373047,0 c -0.64701,0 -0.931817,1 -1.519531,1 l -1.804688,0 C 12.136453,25 12,25.034219 12,25.199219 l 0,1.5 C 12,26.864218 12.136453,27 12.302734,27 l 1.814454,0 c 0.587163,0 0.949027,-1 1.511718,-1 L 17,26 l 0,2 -1.373047,0 c -0.64701,0 -0.931817,1 -1.519531,1 l -1.804688,0 C 12.136453,29 12,29.034219 12,29.199219 l 0,1.5 C 12,30.864218 12.136453,31 12.302734,31 l 1.814454,0 c 0.587163,0 0.949027,-1 1.511718,-1 L 17,30 17,31.814453 C 17,32.466601 17.533696,33 18.185547,33 L 20,33 20,36.699219 C 20,36.864219 20.128013,37 20.285156,37 l 1.429688,0 C 21.871986,37 22,36.864219 22,36.699219 L 22,33 l 2,0 0,3.699219 C 24,36.864219 24.128013,37 24.285156,37 l 1.429688,0 C 25.871986,37 26,36.864219 26,36.699219 L 26,33 l 2,0 0,3.699219 C 28,36.864219 28.128013,37 28.285156,37 l 1.429688,0 C 29.871986,37 30,36.864219 30,36.699219 L 30,33 31.814453,33 C 32.466601,33 33,32.466601 33,31.814453 L 33,30 l 1.373047,0 c 0.562691,0 0.922601,1 1.509765,1 l 1.814454,0 C 37.863547,31 38,30.864218 38,30.699219 l 0,-1.5 C 38,29.034219 37.863547,29 37.697266,29 l -1.804688,0 c -0.587714,0 -0.872521,-1 -1.519531,-1 L 33,28 l 0,-2 1.373047,0 c 0.562691,0 0.922601,1 1.509765,1 l 1.814454,0 C 37.863547,27 38,26.864218 38,26.699219 l 0,-1.5 C 38,25.034219 37.863547,25 37.697266,25 l -1.804688,0 c -0.587714,0 -0.872521,-1 -1.519531,-1 L 33,24 l 0,-2 1.373047,0 c 0.562691,0 0.922601,1 1.509765,1 l 1.814454,0 C 37.863547,23 38,22.864218 38,22.699219 l 0,-1.5 C 38,21.034219 37.863547,21 37.697266,21 l -1.804688,0 c -0.587714,0 -0.872521,-1 -1.519531,-1 L 33,20 33,18.185547 C 33,17.533696 32.466897,17 31.814453,17 L 30,17 30,13.300781 C 30,13.135781 29.871987,13 29.714844,13 l -1.429688,0 C 28.128013,13 28,13.135781 28,13.300781 L 28,17 26,17 26,13.300781 C 26,13.135781 25.871987,13 25.714844,13 l -1.429688,0 C 24.128013,13 24,13.135781 24,13.300781 L 24,17 22,17 22,13.300781 C 22,13.135781 21.871987,13 21.714844,13 l -1.429688,0 z"
     id="path4349"
     inkscape:connector-curvature="0" />
  <g
     id="g33" />
  <g
     id="g3065-0"
     transform="matrix(-0.3023291,0,0,-0.3,43.039675,43.2)">
    <path
       id="path3067-5"
       d="m 66.284308,25 c 0,-0.55 -0.42527,-1 -0.945044,-1 l -4.72522,0 C 60.09427,24 59.669,24.45 59.669,25 l 0,14.666666 c 0,0.55 0.42527,1 0.945044,1 l 4.72522,0 c 0.519774,0 0.945044,-0.45 0.945044,-1 z"
       inkscape:connector-curvature="0"
       style="fill:#ffffff"
       sodipodi:nodetypes="sssssssss" />
  </g>
  <g
     id="g71">
    <path
       d="m 40.03 7.531 c 3.712 4.084 5.969 9.514 5.969 15.469 0 12.703 -10.297 23 -23 23 c -5.954 0 -11.384 -2.256 -15.469 -5.969 4.178 4.291 10.01 6.969 16.469 6.969 c 12.703 0 23 -10.298 23 -23 0 -6.462 -2.677 -12.291 -6.969 -16.469 z"
       opacity="0.1"
       id="path73" />
  </g>
  <path
     style="fill:#ffffff"
     inkscape:connector-curvature="0"
     d="M 14.627822,19.000001 C 13.980812,19.000001 13.694518,20 13.106804,20 l -1.804602,0 C 11.135921,20 11,20.035001 11,20.2 l 0,1.500001 C 11,21.865 11.136048,22 11.302329,22 l 1.813974,0 c 0.587164,0 0.948955,-1 1.511646,-1 l 2.070949,0 c 0.166282,0 0.30118,-0.135 0.301165,-0.299999 L 16.999936,19.3 c -1.4e-5,-0.164999 -0.134882,-0.299999 -0.301164,-0.299999 z"
     id="path3057"
     sodipodi:nodetypes="sssssssssssss" />
  <g
     id="g3065"
     transform="matrix(0.3023291,0,0,0.3,4.9603249,4.8000001)">
    <path
       id="path3067"
       d="m 66.284308,25 c 0,-0.55 -0.42527,-1 -0.945044,-1 l -4.72522,0 C 60.09427,24 59.669,24.45 59.669,25 l 0,14.666666 c 0,0.55 0.42527,1 0.945044,1 l 4.72522,0 c 0.519774,0 0.945044,-0.45 0.945044,-1 z"
       inkscape:connector-curvature="0"
       style="fill:#ffffff"
       sodipodi:nodetypes="sssssssss" />
  </g>
  <g
     id="g3065-3-6"
     transform="matrix(-0.3023291,0,0,-0.3,47.039675,43.2)">
    <path
       id="path3067-1-2"
       d="m 66.284308,25 c 0,-0.55 -0.42527,-1 -0.945044,-1 l -4.72522,0 C 60.09427,24 59.669,24.45 59.669,25 l 0,14.666666 c 0,0.55 0.42527,1 0.945044,1 l 4.72522,0 c 0.519774,0 0.945044,-0.45 0.945044,-1 z"
       inkscape:connector-curvature="0"
       style="fill:#ffffff"
       sodipodi:nodetypes="sssssssss" />
  </g>
  <path
     style="fill:#ffffff"
     inkscape:connector-curvature="0"
     d="M 14.627822,23.000001 C 13.980812,23.000001 13.694518,24 13.106804,24 l -1.804602,0 C 11.135921,24 11,24.035 11,24.2 l 0,1.500001 C 11,25.865 11.136048,26 11.302329,26 l 1.813974,0 c 0.587164,0 0.948955,-1 1.511646,-1 l 2.070949,0 c 0.166282,0 0.30118,-0.135 0.301165,-0.299999 L 16.999936,23.3 c -1.4e-5,-0.164999 -0.134882,-0.299999 -0.301164,-0.299999 z"
     id="path3057-4"
     sodipodi:nodetypes="sssssssssssss" />
  <path
     style="fill:#ffffff"
     inkscape:connector-curvature="0"
     d="M 14.627822,27.000001 C 13.980812,27.000001 13.694518,28 13.106804,28 l -1.804602,0 C 11.135921,28 11,28.035 11,28.2 l 0,1.500001 C 11,29.865 11.136048,30 11.302329,30 l 1.813974,0 c 0.587164,0 0.948955,-1 1.511646,-1 l 2.070949,0 c 0.166282,0 0.30118,-0.135 0.301165,-0.299999 L 16.999936,27.3 c -1.4e-5,-0.164999 -0.134882,-0.299999 -0.301164,-0.299999 z"
     id="path3057-1"
     sodipodi:nodetypes="sssssssssssss" />
  <path
     style="fill:#ffffff"
     inkscape:connector-curvature="0"
     d="m 33.372241,23.000001 c 0.64701,0 0.933304,0.999999 1.521018,0.999999 l 1.804602,0 c 0.166281,0 0.302202,0.035 0.302202,0.2 l 0,1.500001 C 37.000063,25.865 36.864015,26 36.697734,26 l -1.813974,0 c -0.587164,0 -0.948955,-1 -1.511646,-1 l -2.070949,0 C 31.134883,25 30.999985,24.865 31,24.700001 L 31.000127,23.3 c 1.4e-5,-0.164999 0.134882,-0.299999 0.301164,-0.299999 z"
     id="path3057-5-1"
     sodipodi:nodetypes="sssssssssssss" />
  <path
     style="fill:#ffffff"
     inkscape:connector-curvature="0"
     d="m 33.372241,19.000001 c 0.64701,0 0.933304,0.999999 1.521018,0.999999 l 1.804602,0 c 0.166281,0 0.302202,0.035 0.302202,0.2 l 0,1.500001 C 37.000063,21.865 36.864015,22 36.697734,22 l -1.813974,0 c -0.587164,0 -0.948955,-1 -1.511646,-1 l -2.070949,0 C 31.134883,21 30.999985,20.865 31,20.700001 L 31.000127,19.3 c 1.4e-5,-0.164999 0.134882,-0.299999 0.301164,-0.299999 z"
     id="path3057-5"
     sodipodi:nodetypes="sssssssssssss" />
  <path
     style="fill:#ffffff"
     inkscape:connector-curvature="0"
     d="m 33.372241,27.000001 c 0.64701,0 0.933304,0.999999 1.521018,0.999999 l 1.804602,0 c 0.166281,0 0.302202,0.035 0.302202,0.2 l 0,1.500001 C 37.000063,29.865 36.864015,30 36.697734,30 l -1.813974,0 c -0.587164,0 -0.948955,-1 -1.511646,-1 l -2.070949,0 C 31.134883,29 30.999985,28.865 31,28.700001 L 31.000127,27.3 c 1.4e-5,-0.164999 0.134882,-0.299999 0.301164,-0.299999 z"
     id="path3057-5-7"
     sodipodi:nodetypes="sssssssssssss" />
  <g
     id="g3065-3"
     transform="matrix(0.3023291,0,0,0.3,8.9603249,4.8000002)">
    <path
       id="path3067-1"
       d="m 66.284308,25 c 0,-0.55 -0.42527,-1 -0.945044,-1 l -4.72522,0 C 60.09427,24 59.669,24.45 59.669,25 l 0,14.666666 c 0,0.55 0.42527,1 0.945044,1 l 4.72522,0 c 0.519774,0 0.945044,-0.45 0.945044,-1 z"
       inkscape:connector-curvature="0"
       style="fill:#ffffff"
       sodipodi:nodetypes="sssssssss" />
  </g>
  <g
     id="g3065-3-9"
     transform="matrix(0.3023291,0,0,0.3,0.96032493,4.8000002)">
    <path
       id="path3067-1-5"
       d="m 66.284308,25 c 0,-0.55 -0.42527,-1 -0.945044,-1 l -4.72522,0 C 60.09427,24 59.669,24.45 59.669,25 l 0,14.666666 c 0,0.55 0.42527,1 0.945044,1 l 4.72522,0 c 0.519774,0 0.945044,-0.45 0.945044,-1 z"
       inkscape:connector-curvature="0"
       style="fill:#ffffff"
       sodipodi:nodetypes="sssssssss" />
  </g>
  <g
     id="g3065-3-9-4"
     transform="matrix(-0.3023291,0,0,-0.3,39.039675,43.2)">
    <path
       id="path3067-1-5-5"
       d="m 66.284308,25 c 0,-0.55 -0.42527,-1 -0.945044,-1 l -4.72522,0 C 60.09427,24 59.669,24.45 59.669,25 l 0,14.666666 c 0,0.55 0.42527,1 0.945044,1 l 4.72522,0 c 0.519774,0 0.945044,-0.45 0.945044,-1 z"
       inkscape:connector-curvature="0"
       style="fill:#ffffff"
       sodipodi:nodetypes="sssssssss" />
  </g>
  <path
     style="fill:#686868"
     inkscape:connector-curvature="0"
     d="m 32,17.185185 0,13.62963 C 32,31.466963 31.466963,32 30.814815,32 l -13.62963,0 C 16.533334,32 16,31.466963 16,30.814815 l 0,-13.62963 C 16,16.533334 16.533334,16 17.185185,16 l 13.62963,0 C 31.467259,16 32,16.533334 32,17.185185 Z"
     id="path3099" />
  <path
     sodipodi:type="arc"
     style="fill:#999999;fill-opacity:1;stroke:none"
     id="path4117"
     sodipodi:cx="18.5"
     sodipodi:cy="18.5"
     sodipodi:rx="1.5"
     sodipodi:ry="1.5"
     d="m 20,18.5 a 1.5,1.5 0 1 1 -3,0 1.5,1.5 0 1 1 3,0 z" />
</svg>

<svg xmlns="http://www.w3.org/2000/svg" viewBox="0 0 48 48">
 <defs>
  <linearGradient id="linearGradient3764" y1="47" x2="0" y2="1" gradientUnits="userSpaceOnUse">
   <stop style="stop-color:#23bd88;stop-opacity:1"/>
   <stop offset="1" style="stop-color:#26cd93;stop-opacity:1"/>
  </linearGradient>
  <clipPath>
   <g transform="translate(0,-1004.3622)">
    <path d="m -24 13 c 0 1.105 -0.672 2 -1.5 2 -0.828 0 -1.5 -0.895 -1.5 -2 0 -1.105 0.672 -2 1.5 -2 0.828 0 1.5 0.895 1.5 2 z" transform="matrix(15.333333,0,0,11.5,414.99999,878.8622)" style="fill:#1890d0"/>
   </g>
  </clipPath>
  <clipPath>
   <g transform="translate(0,-1004.3622)">
    <path d="m -24 13 c 0 1.105 -0.672 2 -1.5 2 -0.828 0 -1.5 -0.895 -1.5 -2 0 -1.105 0.672 -2 1.5 -2 0.828 0 1.5 0.895 1.5 2 z" transform="matrix(15.333333,0,0,11.5,414.99999,878.8622)" style="fill:#1890d0"/>
   </g>
  </clipPath>
 </defs>
 <g>
  <path d="m 36.31 5 c 5.859 4.062 9.688 10.831 9.688 18.5 c 0 12.426 -10.07 22.5 -22.5 22.5 c -7.669 0 -14.438 -3.828 -18.5 -9.688 c 1.037 1.822 2.306 3.499 3.781 4.969 c 4.085 3.712 9.514 5.969 15.469 5.969 c 12.703 0 23 -10.298 23 -23 c 0 -5.954 -2.256 -11.384 -5.969 -15.469 c -1.469 -1.475 -3.147 -2.744 -4.969 -3.781 z m 4.969 3.781 c 3.854 4.113 6.219 9.637 6.219 15.719 c 0 12.703 -10.297 23 -23 23 c -6.081 0 -11.606 -2.364 -15.719 -6.219 c 4.16 4.144 9.883 6.719 16.219 6.719 c 12.703 0 23 -10.298 23 -23 c 0 -6.335 -2.575 -12.06 -6.719 -16.219 z" style="opacity:0.05"/>
  <path d="m 41.28 8.781 c 3.712 4.085 5.969 9.514 5.969 15.469 c 0 12.703 -10.297 23 -23 23 c -5.954 0 -11.384 -2.256 -15.469 -5.969 c 4.113 3.854 9.637 6.219 15.719 6.219 c 12.703 0 23 -10.298 23 -23 c 0 -6.081 -2.364 -11.606 -6.219 -15.719 z" style="opacity:0.1"/>
  <path d="m 31.25 2.375 c 8.615 3.154 14.75 11.417 14.75 21.13 c 0 12.426 -10.07 22.5 -22.5 22.5 c -9.708 0 -17.971 -6.135 -21.12 -14.75 a 23 23 0 0 0 44.875 -7 a 23 23 0 0 0 -16 -21.875 z" style="opacity:0.2"/>
 </g>
 <path d="M 24,1 C 36.703,1 47,11.297 47,24 47,36.703 36.703,47 24,47 11.297,47 1,36.703 1,24 1,11.297 11.297,1 24,1 Z" style="fill:url(#linearGradient3764);fill-opacity:1"/>
 <path d="m 20.285 13 c -0.157 0 -0.285 0.136 -0.285 0.301 l 0 3.699 -1.814 0 c -0.652 0 -1.186 0.534 -1.186 1.186 l 0 1.814 -1.373 0 c -0.647 0 -0.932 1 -1.52 1 l -1.805 0 c -0.166 0 -0.303 0.034 -0.303 0.199 l 0 1.5 c 0 0.165 0.136 0.301 0.303 0.301 l 1.814 0 c 0.587 0 0.949 -1 1.512 -1 l 1.371 0 l 0 2 -1.373 0 c -0.647 0 -0.932 1 -1.52 1 l -1.805 0 c -0.166 0 -0.303 0.034 -0.303 0.199 l 0 1.5 c 0 0.165 0.136 0.301 0.303 0.301 l 1.814 0 c 0.587 0 0.949 -1 1.512 -1 l 1.371 0 l 0 2 -1.373 0 c -0.647 0 -0.932 1 -1.52 1 l -1.805 0 c -0.166 0 -0.303 0.034 -0.303 0.199 l 0 1.5 c 0 0.165 0.136 0.301 0.303 0.301 l 1.814 0 c 0.587 0 0.949 -1 1.512 -1 l 1.371 0 0 1.814 c 0 0.652 0.534 1.186 1.186 1.186 l 1.814 0 0 3.699 c 0 0.165 0.128 0.301 0.285 0.301 l 1.43 0 c 0.157 0 0.285 -0.136 0.285 -0.301 l 0 -3.699 l 2 0 0 3.699 c 0 0.165 0.128 0.301 0.285 0.301 l 1.43 0 c 0.157 0 0.285 -0.136 0.285 -0.301 l 0 -3.699 l 2 0 0 3.699 c 0 0.165 0.128 0.301 0.285 0.301 l 1.43 0 c 0.157 0 0.285 -0.136 0.285 -0.301 l 0 -3.699 1.814 0 c 0.652 0 1.186 -0.533 1.186 -1.186 l 0 -1.814 l 1.373 0 c 0.563 0 0.923 1 1.51 1 l 1.814 0 c 0.166 0 0.303 -0.136 0.303 -0.301 l 0 -1.5 c 0 -0.165 -0.136 -0.199 -0.303 -0.199 l -1.805 0 c -0.588 0 -0.873 -1 -1.52 -1 l -1.373 0 l 0 -2 1.373 0 c 0.563 0 0.923 1 1.51 1 l 1.814 0 c 0.166 0 0.303 -0.136 0.303 -0.301 l 0 -1.5 c 0 -0.165 -0.136 -0.199 -0.303 -0.199 l -1.805 0 c -0.588 0 -0.873 -1 -1.52 -1 l -1.373 0 l 0 -2 1.373 0 c 0.563 0 0.923 1 1.51 1 l 1.814 0 c 0.166 0 0.303 -0.136 0.303 -0.301 l 0 -1.5 c 0 -0.165 -0.136 -0.199 -0.303 -0.199 l -1.805 0 c -0.588 0 -0.873 -1 -1.52 -1 l -1.373 0 0 -1.814 c 0 -0.652 -0.533 -1.186 -1.186 -1.186 l -1.814 0 0 -3.699 c 0 -0.165 -0.128 -0.301 -0.285 -0.301 l -1.43 0 c -0.157 0 -0.285 0.136 -0.285 0.301 l 0 3.699 -2 0 0 -3.699 c 0 -0.165 -0.128 -0.301 -0.285 -0.301 l -1.43 0 c -0.157 0 -0.285 0.136 -0.285 0.301 l 0 3.699 -2 0 0 -3.699 c 0 -0.165 -0.128 -0.301 -0.285 -0.301 l -1.43 0 z" style="fill:#000;opacity:0.1;fill-opacity:1"/>
 <g transform="matrix(-0.3023291,0,0,-0.3,43.039675,43.2)">
  <path d="m 66.28 25 c 0 -0.55 -0.425 -1 -0.945 -1 l -4.725 0 c -0.52 0 -0.945 0.45 -0.945 1 l 0 14.667 c 0 0.55 0.425 1 0.945 1 l 4.725 0 c 0.52 0 0.945 -0.45 0.945 -1 z" style="fill:#fff"/>
 </g>
 <g>
  <path d="m 40.03 7.531 c 3.712 4.084 5.969 9.514 5.969 15.469 0 12.703 -10.297 23 -23 23 c -5.954 0 -11.384 -2.256 -15.469 -5.969 4.178 4.291 10.01 6.969 16.469 6.969 c 12.703 0 23 -10.298 23 -23 0 -6.462 -2.677 -12.291 -6.969 -16.469 z" style="opacity:0.1"/>
 </g>
 <path d="m 14.628 19 c -0.647 0 -0.933 1 -1.521 1 l -1.805 0 c -0.166 0 -0.302 0.035 -0.302 0.2 l 0 1.5 c 0 0.165 0.136 0.3 0.302 0.3 l 1.814 0 c 0.587 0 0.949 -1 1.512 -1 l 2.071 0 c 0.166 0 0.301 -0.135 0.301 -0.3 l 0 -1.4 c 0 -0.165 -0.135 -0.3 -0.301 -0.3 z" style="fill:#fff"/>
 <g transform="matrix(0.3023291,0,0,0.3,4.9603249,4.8000001)">
  <path d="m 66.28 25 c 0 -0.55 -0.425 -1 -0.945 -1 l -4.725 0 c -0.52 0 -0.945 0.45 -0.945 1 l 0 14.667 c 0 0.55 0.425 1 0.945 1 l 4.725 0 c 0.52 0 0.945 -0.45 0.945 -1 z" style="fill:#fff"/>
 </g>
 <g transform="matrix(-0.3023291,0,0,-0.3,47.039675,43.2)">
  <path d="m 66.28 25 c 0 -0.55 -0.425 -1 -0.945 -1 l -4.725 0 c -0.52 0 -0.945 0.45 -0.945 1 l 0 14.667 c 0 0.55 0.425 1 0.945 1 l 4.725 0 c 0.52 0 0.945 -0.45 0.945 -1 z" style="fill:#fff"/>
 </g>
 <path d="m 14.628 23 c -0.647 0 -0.933 1 -1.521 1 l -1.805 0 c -0.166 0 -0.302 0.035 -0.302 0.2 l 0 1.5 c 0 0.165 0.136 0.3 0.302 0.3 l 1.814 0 c 0.587 0 0.949 -1 1.512 -1 l 2.071 0 c 0.166 0 0.301 -0.135 0.301 -0.3 l 0 -1.4 c 0 -0.165 -0.135 -0.3 -0.301 -0.3 z" style="fill:#fff"/>
 <path d="m 14.628 27 c -0.647 0 -0.933 1 -1.521 1 l -1.805 0 c -0.166 0 -0.302 0.035 -0.302 0.2 l 0 1.5 c 0 0.165 0.136 0.3 0.302 0.3 l 1.814 0 c 0.587 0 0.949 -1 1.512 -1 l 2.071 0 c 0.166 0 0.301 -0.135 0.301 -0.3 l 0 -1.4 c 0 -0.165 -0.135 -0.3 -0.301 -0.3 z" style="fill:#fff"/>
 <path d="m 33.372 23 c 0.647 0 0.933 1 1.521 1 l 1.805 0 c 0.166 0 0.302 0.035 0.302 0.2 l 0 1.5 c 0 0.165 -0.136 0.3 -0.302 0.3 l -1.814 0 c -0.587 0 -0.949 -1 -1.512 -1 l -2.071 0 c -0.166 0 -0.301 -0.135 -0.301 -0.3 l 0 -1.4 c 0 -0.165 0.135 -0.3 0.301 -0.3 z" style="fill:#fff"/>
 <path d="m 33.372 19 c 0.647 0 0.933 1 1.521 1 l 1.805 0 c 0.166 0 0.302 0.035 0.302 0.2 l 0 1.5 c 0 0.165 -0.136 0.3 -0.302 0.3 l -1.814 0 c -0.587 0 -0.949 -1 -1.512 -1 l -2.071 0 c -0.166 0 -0.301 -0.135 -0.301 -0.3 l 0 -1.4 c 0 -0.165 0.135 -0.3 0.301 -0.3 z" style="fill:#fff"/>
 <path d="m 33.372 27 c 0.647 0 0.933 1 1.521 1 l 1.805 0 c 0.166 0 0.302 0.035 0.302 0.2 l 0 1.5 c 0 0.165 -0.136 0.3 -0.302 0.3 l -1.814 0 c -0.587 0 -0.949 -1 -1.512 -1 l -2.071 0 c -0.166 0 -0.301 -0.135 -0.301 -0.3 l 0 -1.4 c 0 -0.165 0.135 -0.3 0.301 -0.3 z" style="fill:#fff"/>
 <g transform="matrix(0.3023291,0,0,0.3,8.9603249,4.8000002)">
  <path d="m 66.28 25 c 0 -0.55 -0.425 -1 -0.945 -1 l -4.725 0 c -0.52 0 -0.945 0.45 -0.945 1 l 0 14.667 c 0 0.55 0.425 1 0.945 1 l 4.725 0 c 0.52 0 0.945 -0.45 0.945 -1 z" style="fill:#fff"/>
 </g>
 <g transform="matrix(0.3023291,0,0,0.3,0.96032493,4.8000002)">
  <path d="m 66.28 25 c 0 -0.55 -0.425 -1 -0.945 -1 l -4.725 0 c -0.52 0 -0.945 0.45 -0.945 1 l 0 14.667 c 0 0.55 0.425 1 0.945 1 l 4.725 0 c 0.52 0 0.945 -0.45 0.945 -1 z" style="fill:#fff"/>
 </g>
 <g transform="matrix(-0.3023291,0,0,-0.3,39.039675,43.2)">
  <path d="m 66.28 25 c 0 -0.55 -0.425 -1 -0.945 -1 l -4.725 0 c -0.52 0 -0.945 0.45 -0.945 1 l 0 14.667 c 0 0.55 0.425 1 0.945 1 l 4.725 0 c 0.52 0 0.945 -0.45 0.945 -1 z" style="fill:#fff"/>
 </g>
 <path d="m 32 17.19 0 13.63 c 0 0.652 -0.533 1.185 -1.185 1.185 l -13.63 0 c -0.652 0 -1.185 -0.533 -1.185 -1.185 l 0 -13.63 c 0 -0.652 0.533 -1.185 1.185 -1.185 l 13.63 0 c 0.652 0 1.185 0.533 1.185 1.185" style="fill:#686868"/>
 <path d="m 20 18.5 a 1.5 1.5 0 1 1 -3 0 1.5 1.5 0 1 1 3 0 z" style="fill:#999;fill-opacity:1;stroke:none"/>
</svg>
